svg/color/egold.svg

<?xml version="1.0" encoding="UTF-8" ?>
<!DOCTYPE svg PUBLIC "-//W3C//DTD SVG 1.1//EN" "http://www.w3.org/Graphics/SVG/1.1/DTD/svg11.dtd">
<svg width="250pt" height="250pt" viewBox="0 0 250 250" version="1.1" xmlns="http://www.w3.org/2000/svg">
<g id="#fefefeff">
<path fill="#fefefe" opacity="1.00" d=" M 0.00 0.00 L 250.00 0.00 L 250.00 250.00 L 0.00 250.00 L 0.00 0.00 M 113.00 38.11 C 117.89 42.82 122.50 47.81 127.39 52.51 C 127.79 52.55 128.57 52.63 128.97 52.67 C 133.80 48.30 138.03 43.28 142.92 38.96 C 142.76 38.47 142.45 37.49 142.29 37.01 C 137.57 32.30 132.83 27.62 128.06 22.97 C 123.03 28.01 117.98 33.03 113.00 38.11 M 99.21 51.99 C 102.28 54.82 105.22 57.80 108.08 60.84 C 111.16 57.94 114.07 54.87 117.13 51.95 C 114.17 48.90 111.26 45.79 108.02 43.03 C 105.08 46.00 102.15 49.00 99.21 51.99 M 147.76 43.16 C 144.98 46.19 142.04 49.06 139.17 52.01 C 142.15 54.97 145.16 57.90 148.00 61.00 C 151.20 58.73 153.43 55.39 156.63 53.11 C 156.61 52.37 156.59 51.63 156.58 50.90 C 153.29 48.72 151.32 44.93 147.76 43.16 M 93.72 57.22 C 80.32 70.98 66.61 84.44 53.01 97.99 C 66.00 111.34 79.44 124.24 92.66 137.35 C 116.39 137.22 140.12 137.39 163.84 137.31 C 176.89 123.99 190.66 111.41 203.65 98.04 C 189.97 84.54 176.42 70.89 162.75 57.39 C 162.38 57.34 161.64 57.24 161.27 57.19 C 155.27 62.21 150.39 68.51 144.18 73.27 C 138.94 67.76 133.46 62.48 128.13 57.05 C 122.81 62.70 117.03 67.91 111.94 73.77 C 107.37 69.47 103.00 64.96 98.53 60.55 C 97.08 59.24 95.92 57.18 93.72 57.22 M 52.64 157.84 C 52.60 172.66 52.58 187.47 52.65 202.29 C 58.22 202.13 63.79 202.32 69.35 202.20 C 69.75 201.88 70.53 201.24 70.93 200.92 C 65.91 199.19 60.39 200.56 55.17 200.06 C 55.12 193.15 55.24 186.25 55.13 179.34 C 59.24 179.23 63.34 179.26 67.45 179.26 C 67.46 178.40 67.47 177.54 67.48 176.69 C 63.38 176.74 59.29 176.72 55.19 176.66 C 55.11 171.15 55.24 165.64 55.13 160.13 C 59.82 160.15 64.53 160.39 69.22 160.08 C 69.63 159.81 70.46 159.26 70.87 158.99 C 70.41 158.75 69.49 158.27 69.03 158.03 C 63.58 157.65 58.10 157.98 52.64 157.84 M 84.48 166.91 C 84.49 175.63 84.50 184.34 84.46 193.05 C 84.13 198.51 89.64 203.22 94.96 202.52 C 99.62 201.99 103.24 197.65 103.37 193.03 C 103.54 187.83 103.29 182.63 103.50 177.43 C 99.79 177.36 96.09 177.34 92.39 177.30 C 92.39 177.83 92.41 178.89 92.41 179.42 C 95.39 179.35 98.36 179.34 101.34 179.37 C 101.14 184.29 101.48 189.22 101.23 194.15 C 100.54 197.44 97.52 200.54 94.00 200.36 C 89.62 200.66 86.13 196.16 86.50 191.99 C 86.55 183.68 86.36 175.36 86.57 167.05 C 86.67 162.48 91.52 158.58 95.98 160.07 C 99.07 160.90 100.85 163.97 101.58 166.89 C 102.08 166.86 103.09 166.78 103.59 166.74 C 102.82 163.33 101.12 159.84 97.66 158.49 C 91.92 155.51 84.27 160.54 84.48 166.91 M 119.86 166.18 C 119.39 174.45 119.87 182.77 119.65 191.06 C 119.28 195.56 121.63 200.38 126.04 201.95 C 129.65 203.45 133.45 201.71 136.26 199.42 C 137.28 197.39 138.81 195.42 138.51 193.01 C 138.45 184.65 138.44 176.29 138.52 167.94 C 138.84 164.04 136.37 160.23 132.92 158.56 C 127.44 155.87 120.33 160.14 119.86 166.18 M 154.69 158.35 C 154.75 172.76 154.91 187.18 154.61 201.59 C 157.25 202.79 160.24 202.01 163.04 202.21 C 165.92 202.05 169.01 202.79 171.71 201.45 C 171.55 201.15 171.23 200.54 171.07 200.23 C 166.47 200.25 161.88 200.21 157.29 200.33 C 157.35 186.33 157.15 172.32 157.38 158.32 C 156.48 158.32 155.59 158.33 154.69 158.35 M 184.92 170.98 C 185.05 181.43 184.67 191.89 185.16 202.33 C 188.79 202.13 192.43 202.42 196.05 202.14 C 200.31 201.28 203.70 197.29 203.68 192.90 C 203.77 184.59 203.68 176.28 203.71 167.98 C 203.93 163.68 201.08 159.32 196.81 158.30 C 193.07 157.48 189.22 158.07 185.43 157.74 C 184.48 162.09 185.08 166.57 184.92 170.98 Z" />
<path fill="#fefefe" opacity="1.00" d=" M 69.01 98.04 C 77.46 89.76 85.79 81.36 94.07 72.91 C 97.95 75.18 100.54 79.01 103.87 81.96 C 98.63 87.32 93.42 92.73 88.12 98.04 C 97.51 107.05 106.55 116.41 115.96 125.38 C 109.59 125.88 103.18 125.53 96.79 125.50 C 87.89 116.00 78.18 107.28 69.01 98.04 Z" />
<path fill="#fefefe" opacity="1.00" d=" M 152.76 82.00 C 155.85 79.01 158.87 75.95 161.96 72.96 C 170.33 81.31 178.63 89.74 187.06 98.05 C 177.90 107.25 168.38 116.09 159.44 125.51 C 153.06 125.60 146.68 125.59 140.31 125.53 C 147.51 118.70 154.35 111.48 161.51 104.60 C 163.84 102.48 166.24 100.42 168.27 98.02 C 162.83 92.94 158.12 87.15 152.76 82.00 Z" />
<path fill="#fefefe" opacity="1.00" d=" M 127.48 74.47 C 127.80 74.43 128.45 74.33 128.77 74.29 C 131.30 76.78 133.70 79.40 136.14 81.97 C 133.42 84.56 130.81 87.27 128.09 89.86 C 125.37 87.24 122.67 84.59 119.99 81.93 C 122.58 79.54 124.88 76.86 127.48 74.47 Z" />
<path fill="#fefefe" opacity="1.00" d=" M 106.06 96.14 C 107.97 94.08 109.97 92.11 111.94 90.12 C 117.15 95.26 122.29 100.45 127.48 105.61 C 127.89 105.62 128.73 105.64 129.14 105.65 C 133.99 100.30 139.58 95.67 144.36 90.25 C 146.88 92.74 149.31 95.33 151.78 97.87 C 144.19 105.88 135.95 113.25 128.08 120.99 C 120.60 113.49 112.79 106.31 105.43 98.68 C 105.03 97.66 105.24 96.82 106.06 96.14 Z" />
<path fill="#fefefe" opacity="1.00" d=" M 121.63 168.03 C 121.22 164.19 124.19 160.40 127.97 159.73 C 132.17 158.99 136.72 162.66 136.50 167.00 C 136.53 175.95 136.56 184.91 136.47 193.86 C 136.50 197.00 133.62 199.00 131.27 200.55 C 127.18 201.18 123.30 198.88 121.81 195.05 C 121.35 186.05 121.69 177.03 121.63 168.03 Z" />
<path fill="#fefefe" opacity="1.00" d=" M 187.34 160.15 C 191.21 160.55 195.84 159.10 198.97 162.09 C 202.20 165.19 201.02 170.02 201.22 174.00 C 201.00 180.99 201.65 188.03 200.88 194.97 C 199.27 200.81 192.09 200.25 187.33 200.12 C 187.33 186.79 187.29 173.47 187.34 160.15 Z" />
</g>
<g id="#855b29ff">
<path fill="#855b29" opacity="1.00" d=" M 113.00 38.11 C 117.98 33.03 123.03 28.01 128.06 22.97 C 132.83 27.62 137.57 32.30 142.29 37.01 C 142.45 37.49 142.76 38.47 142.92 38.96 C 138.03 43.28 133.80 48.30 128.97 52.67 C 128.57 52.63 127.79 52.55 127.39 52.51 C 122.50 47.81 117.89 42.82 113.00 38.11 Z" />
<path fill="#855b29" opacity="1.00" d=" M 99.21 51.99 C 102.15 49.00 105.08 46.00 108.02 43.03 C 111.26 45.79 114.17 48.90 117.13 51.95 C 114.07 54.87 111.16 57.94 108.08 60.84 C 105.22 57.80 102.28 54.82 99.21 51.99 Z" />
<path fill="#855b29" opacity="1.00" d=" M 147.76 43.16 C 151.32 44.93 153.29 48.72 156.58 50.90 C 156.59 51.63 156.61 52.37 156.63 53.11 C 153.43 55.39 151.20 58.73 148.00 61.00 C 145.16 57.90 142.15 54.97 139.17 52.01 C 142.04 49.06 144.98 46.19 147.76 43.16 Z" />
<path fill="#855b29" opacity="1.00" d=" M 93.72 57.22 C 95.92 57.18 97.08 59.24 98.53 60.55 C 103.00 64.96 107.37 69.47 111.94 73.77 C 117.03 67.91 122.81 62.70 128.13 57.05 C 133.46 62.48 138.94 67.76 144.18 73.27 C 150.39 68.51 155.27 62.21 161.27 57.19 C 161.64 57.24 162.38 57.34 162.75 57.39 C 176.42 70.89 189.97 84.54 203.65 98.04 C 190.66 111.41 176.89 123.99 163.84 137.31 C 140.12 137.39 116.39 137.22 92.66 137.35 C 79.44 124.24 66.00 111.34 53.01 97.99 C 66.61 84.44 80.32 70.98 93.72 57.22 M 69.01 98.04 C 78.18 107.28 87.89 116.00 96.79 125.50 C 103.18 125.53 109.59 125.88 115.96 125.38 C 106.55 116.41 97.51 107.05 88.12 98.04 C 93.42 92.73 98.63 87.32 103.87 81.96 C 100.54 79.01 97.95 75.18 94.07 72.91 C 85.79 81.36 77.46 89.76 69.01 98.04 M 152.76 82.00 C 158.12 87.15 162.83 92.94 168.27 98.02 C 166.24 100.42 163.84 102.48 161.51 104.60 C 154.35 111.48 147.51 118.70 140.31 125.53 C 146.68 125.59 153.06 125.60 159.44 125.51 C 168.38 116.09 177.90 107.25 187.06 98.05 C 178.63 89.74 170.33 81.31 161.96 72.96 C 158.87 75.95 155.85 79.01 152.76 82.00 M 127.48 74.47 C 124.88 76.86 122.58 79.54 119.99 81.93 C 122.67 84.59 125.37 87.24 128.09 89.86 C 130.81 87.27 133.42 84.56 136.14 81.97 C 133.70 79.40 131.30 76.78 128.77 74.29 C 128.45 74.33 127.80 74.43 127.48 74.47 M 106.06 96.14 C 105.24 96.82 105.03 97.66 105.43 98.68 C 112.79 106.31 120.60 113.49 128.08 120.99 C 135.95 113.25 144.19 105.88 151.78 97.87 C 149.31 95.33 146.88 92.74 144.36 90.25 C 139.58 95.67 133.99 100.30 129.14 105.65 C 128.73 105.64 127.89 105.62 127.48 105.61 C 122.29 100.45 117.15 95.26 111.94 90.12 C 109.97 92.11 107.97 94.08 106.06 96.14 Z" />
<path fill="#855b29" opacity="1.00" d=" M 52.64 157.84 C 58.10 157.98 63.58 157.65 69.03 158.03 C 69.49 158.27 70.41 158.75 70.87 158.99 C 70.46 159.26 69.63 159.81 69.22 160.08 C 64.53 160.39 59.82 160.15 55.13 160.13 C 55.24 165.64 55.11 171.15 55.19 176.66 C 59.29 176.72 63.38 176.74 67.48 176.69 C 67.47 177.54 67.46 178.40 67.45 179.26 C 63.34 179.26 59.24 179.23 55.13 179.34 C 55.24 186.25 55.12 193.15 55.17 200.06 C 60.39 200.56 65.91 199.19 70.93 200.92 C 70.53 201.24 69.75 201.88 69.35 202.20 C 63.79 202.32 58.22 202.13 52.65 202.29 C 52.58 187.47 52.60 172.66 52.64 157.84 Z" />
<path fill="#855b29" opacity="1.00" d=" M 84.48 166.91 C 84.27 160.54 91.92 155.51 97.66 158.49 C 101.12 159.84 102.82 163.33 103.59 166.74 C 103.09 166.78 102.08 166.86 101.58 166.89 C 100.85 163.97 99.07 160.90 95.98 160.07 C 91.52 158.58 86.67 162.48 86.57 167.05 C 86.36 175.36 86.55 183.68 86.50 191.99 C 86.13 196.16 89.62 200.66 94.00 200.36 C 97.52 200.54 100.54 197.44 101.23 194.15 C 101.48 189.22 101.14 184.29 101.34 179.37 C 98.36 179.34 95.39 179.35 92.41 179.42 C 92.41 178.89 92.39 177.83 92.39 177.30 C 96.09 177.34 99.79 177.36 103.50 177.43 C 103.29 182.63 103.54 187.83 103.37 193.03 C 103.24 197.65 99.62 201.99 94.96 202.52 C 89.64 203.22 84.13 198.51 84.46 193.05 C 84.50 184.34 84.49 175.63 84.48 166.91 Z" />
<path fill="#855b29" opacity="1.00" d=" M 119.86 166.18 C 120.33 160.14 127.44 155.87 132.92 158.56 C 136.37 160.23 138.84 164.04 138.52 167.94 C 138.44 176.29 138.45 184.65 138.51 193.01 C 138.81 195.42 137.28 197.39 136.26 199.42 C 133.45 201.71 129.65 203.45 126.04 201.95 C 121.63 200.38 119.28 195.56 119.65 191.06 C 119.87 182.77 119.39 174.45 119.86 166.18 M 121.63 168.03 C 121.69 177.03 121.35 186.05 121.81 195.05 C 123.30 198.88 127.18 201.18 131.27 200.55 C 133.62 199.00 136.50 197.00 136.47 193.86 C 136.56 184.91 136.53 175.95 136.50 167.00 C 136.72 162.66 132.17 158.99 127.97 159.73 C 124.19 160.40 121.22 164.19 121.63 168.03 Z" />
<path fill="#855b29" opacity="1.00" d=" M 154.69 158.35 C 155.59 158.33 156.48 158.32 157.38 158.32 C 157.15 172.32 157.35 186.33 157.29 200.33 C 161.88 200.21 166.47 200.25 171.07 200.23 C 171.23 200.54 171.55 201.15 171.71 201.45 C 169.01 202.79 165.92 202.05 163.04 202.21 C 160.24 202.01 157.25 202.79 154.61 201.59 C 154.91 187.18 154.75 172.76 154.69 158.35 Z" />
<path fill="#855b29" opacity="1.00" d=" M 184.92 170.98 C 185.08 166.57 184.48 162.09 185.43 157.74 C 189.22 158.07 193.07 157.48 196.81 158.30 C 201.08 159.32 203.93 163.68 203.71 167.98 C 203.68 176.28 203.77 184.59 203.68 192.90 C 203.70 197.29 200.31 201.28 196.05 202.14 C 192.43 202.42 188.79 202.13 185.16 202.33 C 184.67 191.89 185.05 181.43 184.92 170.98 M 187.34 160.15 C 187.29 173.47 187.33 186.79 187.33 200.12 C 192.09 200.25 199.27 200.81 200.88 194.97 C 201.65 188.03 201.00 180.99 201.22 174.00 C 201.02 170.02 202.20 165.19 198.97 162.09 C 195.84 159.10 191.21 160.55 187.34 160.15 Z" />
</g>
</svg>

<?xml version="1.0" encoding="utf-8"?>
<!-- Generator: Adobe Illustrator 26.0.3, SVG Export Plug-In . SVG Version: 6.00 Build 0)  -->
<svg version="1.1" id="Layer_1" xmlns="http://www.w3.org/2000/svg" xmlns:xlink="http://www.w3.org/1999/xlink" x="0px" y="0px"
	 viewBox="0 0 250 250" style="enable-background:new 0 0 250 250;" xml:space="preserve">
<style type="text/css">
	.st0{fill:#FEFEFE;}
	.st1{fill:#855B29;}
</style>
<g id="_x23_fefefeff">
	<path class="st0" d="M69,98c8.4-8.3,16.8-16.7,25.1-25.1c3.9,2.3,6.5,6.1,9.8,9C98.6,87.3,93.4,92.7,88.1,98
		c9.4,9,18.4,18.4,27.8,27.3c-6.4,0.5-12.8,0.2-19.2,0.1C87.9,116,78.2,107.3,69,98z"/>
	<path class="st0" d="M152.8,82c3.1-3,6.1-6.1,9.2-9c8.4,8.3,16.7,16.8,25.1,25.1c-9.2,9.2-18.7,18-27.6,27.5
		c-6.4,0.1-12.8,0.1-19.1,0c7.2-6.8,14-14,21.2-20.9c2.3-2.1,4.7-4.2,6.8-6.6C162.8,92.9,158.1,87.2,152.8,82z"/>
	<path class="st0" d="M127.5,74.5c0.3,0,1-0.1,1.3-0.2c2.5,2.5,4.9,5.1,7.4,7.7c-2.7,2.6-5.3,5.3-8.1,7.9c-2.7-2.6-5.4-5.3-8.1-7.9
		C122.6,79.5,124.9,76.9,127.5,74.5z"/>
	<path class="st0" d="M106.1,96.1c1.9-2.1,3.9-4,5.9-6c5.2,5.1,10.3,10.3,15.5,15.5c0.4,0,1.2,0,1.7,0c4.9-5.3,10.4-10,15.2-15.4
		c2.5,2.5,4.9,5.1,7.4,7.6c-7.6,8-15.8,15.4-23.7,23.1c-7.5-7.5-15.3-14.7-22.7-22.3C105,97.7,105.2,96.8,106.1,96.1z"/>
	<path class="st0" d="M121.6,168c-0.4-3.8,2.6-7.6,6.3-8.3c4.2-0.7,8.8,2.9,8.5,7.3c0,8.9,0.1,17.9,0,26.9c0,3.1-2.9,5.1-5.2,6.7
		c-4.1,0.6-8-1.7-9.5-5.5C121.3,186.1,121.7,177,121.6,168z"/>
	<path class="st0" d="M187.3,160.1c3.9,0.4,8.5-1,11.6,1.9c3.2,3.1,2.1,7.9,2.2,11.9c-0.2,7,0.4,14-0.3,21
		c-1.6,5.8-8.8,5.3-13.6,5.1C187.3,186.8,187.3,173.5,187.3,160.1z"/>
</g>
<g id="_x23_855b29ff">
	<path class="st1" d="M113,38.1C118,33,123,28,128.1,23c4.8,4.7,9.5,9.3,14.2,14c0.2,0.5,0.5,1.5,0.6,2c-4.9,4.3-9.1,9.3-13.9,13.7
		c-0.4,0-1.2-0.1-1.6-0.2C122.5,47.8,117.9,42.8,113,38.1z"/>
	<path class="st1" d="M99.2,52c2.9-3,5.9-6,8.8-9c3.2,2.8,6.2,5.9,9.1,8.9c-3.1,2.9-6,6-9,8.9C105.2,57.8,102.3,54.8,99.2,52z"/>
	<path class="st1" d="M147.8,43.2c3.6,1.8,5.5,5.6,8.8,7.7c0,0.7,0,1.5,0.1,2.2c-3.2,2.3-5.4,5.6-8.6,7.9c-2.8-3.1-5.9-6-8.8-9
		C142,49.1,145,46.2,147.8,43.2z"/>
	<path class="st1" d="M93.7,57.2c2.2,0,3.4,2,4.8,3.3c4.5,4.4,8.8,8.9,13.4,13.2c5.1-5.9,10.9-11.1,16.2-16.7
		c5.3,5.4,10.8,10.7,16,16.2c6.2-4.8,11.1-11.1,17.1-16.1c0.4,0.1,1.1,0.2,1.5,0.2C176.4,70.9,190,84.5,203.6,98
		c-13,13.4-26.8,25.9-39.8,39.3c-23.7,0.1-47.4-0.1-71.2,0C79.4,124.2,66,111.3,53,98C66.6,84.4,80.3,71,93.7,57.2 M69,98
		c9.2,9.2,18.9,18,27.8,27.5c6.4,0,12.8,0.4,19.2-0.1c-9.4-9-18.4-18.3-27.8-27.3c5.3-5.3,10.5-10.7,15.8-16.1
		c-3.3-2.9-5.9-6.8-9.8-9C85.8,81.4,77.5,89.8,69,98 M152.8,82c5.4,5.2,10.1,10.9,15.5,16c-2,2.4-4.4,4.5-6.8,6.6
		c-7.2,6.9-14,14.1-21.2,20.9c6.4,0.1,12.8,0.1,19.1,0c8.9-9.4,18.5-18.3,27.6-27.5c-8.4-8.3-16.7-16.7-25.1-25.1
		C158.9,75.9,155.9,79,152.8,82 M127.5,74.5c-2.6,2.4-4.9,5.1-7.5,7.5c2.7,2.7,5.4,5.3,8.1,7.9c2.7-2.6,5.3-5.3,8.1-7.9
		c-2.4-2.6-4.8-5.2-7.4-7.7C128.4,74.3,127.8,74.4,127.5,74.5 M106.1,96.1c-0.8,0.7-1,1.5-0.6,2.5c7.4,7.6,15.2,14.8,22.7,22.3
		c7.9-7.7,16.1-15.1,23.7-23.1c-2.5-2.5-4.9-5.1-7.4-7.6c-4.8,5.4-10.4,10.1-15.2,15.4c-0.4,0-1.2,0-1.7,0
		c-5.2-5.2-10.3-10.3-15.5-15.5C110,92.1,108,94.1,106.1,96.1z"/>
	<path class="st1" d="M52.6,157.8c5.5,0.1,10.9-0.2,16.4,0.2c0.5,0.2,1.4,0.7,1.8,1c-0.4,0.3-1.2,0.8-1.7,1.1
		c-4.7,0.3-9.4,0.1-14.1,0.1c0.1,5.5,0,11,0.1,16.5c4.1,0.1,8.2,0.1,12.3,0c0,0.8,0,1.7,0,2.6c-4.1,0-8.2,0-12.3,0.1
		c0.1,6.9,0,13.8,0,20.7c5.2,0.5,10.7-0.9,15.8,0.9c-0.4,0.3-1.2,1-1.6,1.3c-5.6,0.1-11.1-0.1-16.7,0.1
		C52.6,187.5,52.6,172.7,52.6,157.8z"/>
	<path class="st1" d="M84.5,166.9c-0.2-6.4,7.4-11.4,13.2-8.4c3.5,1.3,5.2,4.8,5.9,8.2c-0.5,0-1.5,0.1-2,0.1c-0.7-2.9-2.5-6-5.6-6.8
		c-4.5-1.5-9.3,2.4-9.4,7c-0.2,8.3,0,16.6-0.1,24.9c-0.4,4.2,3.1,8.7,7.5,8.4c3.5,0.2,6.5-2.9,7.2-6.2c0.2-4.9-0.1-9.9,0.1-14.8
		c-3,0-5.9,0-8.9,0.1c0-0.5,0-1.6,0-2.1c3.7,0,7.4,0.1,11.1,0.1c-0.2,5.2,0,10.4-0.1,15.6c-0.1,4.6-3.8,9-8.4,9.5
		c-5.3,0.7-10.8-4-10.5-9.5C84.5,184.3,84.5,175.6,84.5,166.9z"/>
	<path class="st1" d="M119.9,166.2c0.5-6,7.6-10.3,13.1-7.6c3.4,1.7,5.9,5.5,5.6,9.4c-0.1,8.3-0.1,16.7,0,25.1
		c0.3,2.4-1.2,4.4-2.2,6.4c-2.8,2.3-6.6,4-10.2,2.5c-4.4-1.6-6.8-6.4-6.4-10.9C119.9,182.8,119.4,174.4,119.9,166.2 M121.6,168
		c0.1,9-0.3,18,0.2,27c1.5,3.8,5.4,6.1,9.5,5.5c2.3-1.6,5.2-3.6,5.2-6.7c0.1-8.9,0.1-17.9,0-26.9c0.2-4.3-4.3-8-8.5-7.3
		C124.2,160.4,121.2,164.2,121.6,168z"/>
	<path class="st1" d="M154.7,158.4c0.9,0,1.8,0,2.7,0c-0.2,14,0,28-0.1,42c4.6-0.1,9.2-0.1,13.8-0.1c0.2,0.3,0.5,0.9,0.6,1.2
		c-2.7,1.3-5.8,0.6-8.7,0.8c-2.8-0.2-5.8,0.6-8.4-0.6C154.9,187.2,154.8,172.8,154.7,158.4z"/>
	<path class="st1" d="M184.9,171c0.2-4.4-0.4-8.9,0.5-13.2c3.8,0.3,7.6-0.3,11.4,0.6c4.3,1,7.1,5.4,6.9,9.7c0,8.3,0.1,16.6,0,24.9
		c0,4.4-3.4,8.4-7.6,9.2c-3.6,0.3-7.3,0-10.9,0.2C184.7,191.9,185.1,181.4,184.9,171 M187.3,160.1c-0.1,13.3,0,26.6,0,40
		c4.8,0.1,11.9,0.7,13.6-5.1c0.8-6.9,0.1-14,0.3-21c-0.2-4,1-8.8-2.2-11.9C195.8,159.1,191.2,160.6,187.3,160.1z"/>
</g>
</svg>
